X:1
T:Pileknckaren
R:Gnglt
Z:Patrik Mnsson, 8/7 2008
O:Skne
M:2/4
L:1/16
Q:1/4=90
K:G
|: DGBA G2G2 | DGBA G2G2 | EAcB A2AG |[1 F2EF G2 z2 :|[2 F2EF G2Bc  |]
|: d2B2 B2Bc | d2B2 B2AB | c2cB A2AG |[1 F2EF G2Bc  :|[2 F2EF G2 z2 |] 
|: G2B2 d2f2 | g2ee e2d2 | c2c2 B2G2 | A2F2 G2 z2 :|
